static/images/invite/weibo.svg

<svg width="40" height="40" viewBox="0 0 40 40" fill="none" xmlns="http://www.w3.org/2000/svg">
<rect width="40" height="40" rx="20" fill="white" fill-opacity="0.08"/>
<g filter="url(#filter0_d_11686_8014)">
<g clip-path="url(#clip0_11686_8014)">
<ellipse cx="18.4074" cy="23.3666" rx="8.51142" ry="6.62" fill="white"/>
<path d="M29.0058 19.5289C28.5416 19.2361 28.0217 18.9989 27.4461 18.817C27.3246 18.7767 27.2387 18.7464 27.1883 18.7263C27.1379 18.7061 27.0769 18.6684 27.0068 18.6127C26.9363 18.557 26.9129 18.4939 26.9389 18.4233C26.9644 18.3528 26.9867 18.252 27.0068 18.1204C27.461 16.9591 27.461 16.0604 27.0068 15.4243C26.5421 14.8084 25.7697 14.5002 24.689 14.5002C23.6083 14.5002 22.3664 14.7983 20.9632 15.3941L20.8719 15.4243C20.8115 15.4445 20.7435 15.462 20.6677 15.4774C20.5918 15.4927 20.5186 15.4949 20.4481 15.4848C20.3775 15.4747 20.3271 15.4397 20.2969 15.3787C20.2666 15.3182 20.2719 15.2169 20.3122 15.0758C20.7664 13.6115 20.6656 12.5563 20.0093 11.9102C19.2623 11.1632 18.0177 11.1276 16.2755 11.8041C14.5338 12.481 12.8097 13.672 11.103 15.3787C9.81063 16.671 8.81326 17.974 8.11139 19.2865C7.40951 20.6 7.05884 21.8367 7.05884 22.998C7.05884 24.0882 7.38723 25.0957 8.04348 26.0198C8.70026 26.944 9.56554 27.7063 10.6414 28.3069C11.7168 28.9074 12.9311 29.3775 14.284 29.7154C15.6373 30.0533 17.0257 30.2226 18.4491 30.2226C19.8724 30.2226 21.2385 30.0661 22.5462 29.7531C23.854 29.4401 24.9951 29.021 25.9692 28.4957C26.9437 27.9711 27.7947 27.3774 28.5215 26.7159C29.2488 26.0543 29.799 25.363 30.1724 24.641C30.5459 23.919 30.7332 23.2144 30.7332 22.5285C30.7332 21.8823 30.5618 21.294 30.2181 20.764C29.8748 20.2335 29.4711 19.8218 29.0058 19.5289ZM24.0609 26.4745C22.5818 27.6708 20.716 28.3854 18.4644 28.6178C16.9901 28.7594 15.6044 28.6533 14.3068 28.3C13.0091 27.9461 11.9566 27.396 11.1486 26.649C10.3406 25.9015 9.89127 25.0431 9.80055 24.0739C9.65891 22.5996 10.3279 21.2643 11.8075 20.0679C13.2866 18.8711 15.1524 18.157 17.4039 17.9246C18.8782 17.783 20.264 17.8891 21.5611 18.243C22.8582 18.5963 23.9113 19.1464 24.7193 19.8939C25.5272 20.6414 25.9766 21.4998 26.0673 22.4691C26.2084 23.9434 25.54 25.2787 24.0603 26.4755L24.0609 26.4745Z" fill="#D33437"/>
<path d="M18.9037 20.1964C17.8337 19.9237 16.7705 20.0198 15.7153 20.4845C14.6601 20.9487 13.8951 21.6506 13.4208 22.5896C12.946 23.5488 12.9131 24.4952 13.3221 25.4294C13.7312 26.3637 14.476 27.0019 15.5562 27.3457C16.6771 27.7091 17.8082 27.6486 18.9488 27.1637C20.09 26.6788 20.8873 25.9218 21.342 24.892C21.7961 23.8819 21.7834 22.9201 21.3038 22.0065C20.8237 21.093 20.0236 20.4898 18.9032 20.1969L18.9037 20.1964ZM17.283 25.1037C17.0607 25.447 16.7456 25.6867 16.336 25.8231C15.927 25.9594 15.5509 25.9467 15.2076 25.7854C14.8644 25.6236 14.6474 25.369 14.5567 25.0204C14.4659 24.6724 14.5312 24.3265 14.7535 23.9833C14.9652 23.6496 15.2686 23.4177 15.6623 23.2867C16.0564 23.1551 16.4246 23.1604 16.7679 23.3015C17.1212 23.4527 17.3488 23.7053 17.4496 24.0586C17.5504 24.4119 17.4952 24.7599 17.283 25.1037ZM18.7069 23.2708C18.6363 23.4023 18.5249 23.4957 18.3737 23.5514C18.2225 23.6071 18.0756 23.6092 17.9345 23.5588C17.6315 23.4172 17.5658 23.1901 17.7376 22.8771C17.8082 22.7456 17.917 22.6522 18.0634 22.5965C18.2098 22.5408 18.3536 22.5387 18.4952 22.5891C18.6263 22.6395 18.7149 22.7328 18.7605 22.8692C18.8061 23.005 18.7881 23.1392 18.7074 23.2702L18.7069 23.2708Z" fill="black"/>
<path d="M28.7029 16.6287C28.8143 16.8457 28.9857 16.9948 29.218 17.0754C29.4504 17.146 29.6748 17.1258 29.8918 17.015C30.1088 16.9041 30.2579 16.7322 30.339 16.4998C30.5305 15.9343 30.564 15.3412 30.4372 14.7205C30.3109 14.0998 30.0361 13.5517 29.6122 13.0769C29.1883 12.6021 28.678 12.2716 28.0822 12.0849C27.4864 11.8981 26.8854 11.8705 26.28 12.0016C26.0371 12.052 25.8508 12.1809 25.7193 12.3878C25.5882 12.5947 25.5479 12.8196 25.5988 13.0615C25.6392 13.304 25.7654 13.4907 25.9771 13.6218C26.1893 13.7528 26.4164 13.7936 26.6588 13.7432C27.2949 13.6117 27.835 13.7889 28.2796 14.2732C28.7241 14.7576 28.8451 15.3184 28.643 15.9544C28.5719 16.1868 28.592 16.4112 28.7029 16.6287Z" fill="#F19F4B"/>
<path d="M34.058 13.9783C33.8002 12.7013 33.2325 11.5777 32.354 10.6084C31.4754 9.62908 30.425 8.95001 29.2032 8.57122C27.9814 8.19244 26.7501 8.13461 25.5076 8.39721C25.2249 8.45769 25.0052 8.60677 24.8487 8.84391C24.6922 9.08158 24.6445 9.34154 24.705 9.6243C24.7654 9.90707 24.9166 10.1267 25.1596 10.2832C25.4015 10.4397 25.6641 10.488 25.9469 10.427C26.8254 10.2455 27.6992 10.2885 28.5677 10.5559C29.4361 10.8233 30.1836 11.3055 30.8096 12.0021C31.4356 12.6886 31.8399 13.4865 32.0213 14.3953C32.2033 15.304 32.1529 16.1725 31.8701 17.0001C31.7895 17.2728 31.8144 17.5354 31.946 17.7879C32.077 18.0404 32.2792 18.2118 32.5519 18.303C32.8245 18.3938 33.0871 18.3736 33.3397 18.2426C33.5922 18.1115 33.7641 17.9094 33.8548 17.6367C34.2485 16.4754 34.3164 15.2563 34.0591 13.9788L34.058 13.9783Z" fill="#F19F4B"/>
</g>
</g>
<defs>
<filter id="filter0_d_11686_8014" x="2.35296" y="5.88241" width="36.5631" height="31.3996" filterUnits="userSpaceOnUse" color-interpolation-filters="sRGB">
<feFlood flood-opacity="0" result="BackgroundImageFix"/>
<feColorMatrix in="SourceAlpha" type="matrix" values="0 0 0 0 0 0 0 0 0 0 0 0 0 0 0 0 0 0 127 0" result="hardAlpha"/>
<feOffset dy="2.35294"/>
<feGaussianBlur stdDeviation="2.35294"/>
<feColorMatrix type="matrix" values="0 0 0 0 0 0 0 0 0 0 0 0 0 0 0 0 0 0 0.05 0"/>
<feBlend mode="normal" in2="BackgroundImageFix" result="effect1_dropShadow_11686_8014"/>
<feBlend mode="normal" in="SourceGraphic" in2="effect1_dropShadow_11686_8014" result="shape"/>
</filter>
<clipPath id="clip0_11686_8014">
<rect width="27.1514" height="21.9878" fill="white" transform="translate(7.05884 8.23535)"/>
</clipPath>
</defs>
</svg>

<svg xmlns="http://www.w3.org/2000/svg" width="40" height="40" fill="none"><rect width="40" height="40" fill="#fff" fill-opacity=".08" rx="20"/><g filter="url(#a)"><g clip-path="url(#b)"><ellipse cx="18.407" cy="23.367" fill="#fff" rx="8.511" ry="6.62"/><path fill="#D33437" d="M29.006 19.529a6.683 6.683 0 0 0-1.56-.712 5.258 5.258 0 0 1-.258-.09.77.77 0 0 1-.181-.114c-.07-.056-.094-.12-.068-.19.025-.07.048-.171.068-.303.454-1.16.454-2.06 0-2.696-.465-.616-1.237-.924-2.318-.924-1.08 0-2.323.298-3.726.894l-.091.03c-.06.02-.128.038-.204.053a.643.643 0 0 1-.22.008.187.187 0 0 1-.151-.106c-.03-.06-.025-.162.015-.303.454-1.465.354-2.52-.303-3.166-.747-.747-1.991-.782-3.733-.106-1.742.677-3.466 1.868-5.173 3.575-1.292 1.292-2.29 2.595-2.992 3.908-.701 1.313-1.052 2.55-1.052 3.711 0 1.09.328 2.098.984 3.022.657.924 1.523 1.686 2.598 2.287 1.076.6 2.29 1.07 3.643 1.408 1.353.338 2.742.508 4.165.508s2.79-.157 4.097-.47c1.308-.313 2.45-.732 3.423-1.257a12.743 12.743 0 0 0 2.552-1.78c.728-.662 1.278-1.353 1.651-2.075.374-.722.561-1.427.561-2.112 0-.647-.171-1.235-.515-1.765-.343-.53-.747-.942-1.212-1.235Zm-4.945 6.945c-1.48 1.197-3.345 1.911-5.597 2.144-1.474.141-2.86.035-4.157-.318-1.298-.354-2.35-.904-3.158-1.651-.808-.748-1.258-1.606-1.348-2.575-.142-1.474.527-2.81 2.006-4.006 1.48-1.197 3.345-1.911 5.597-2.143 1.474-.142 2.86-.036 4.157.318 1.297.353 2.35.903 3.158 1.65.808.748 1.258 1.607 1.348 2.576.141 1.474-.527 2.81-2.007 4.006Z"/><path fill="#000" d="M18.904 20.196c-1.07-.272-2.134-.176-3.189.288-1.055.465-1.82 1.167-2.294 2.106-.475.959-.508 1.905-.099 2.84.41.934 1.154 1.572 2.234 1.916 1.121.363 2.252.303 3.393-.182s1.938-1.242 2.393-2.272c.454-1.01.441-1.972-.038-2.886-.48-.913-1.28-1.516-2.4-1.81Zm-1.621 4.908a1.747 1.747 0 0 1-.947.72c-.409.135-.785.123-1.128-.039-.344-.161-.56-.416-.651-.765-.091-.348-.026-.694.197-1.037a1.66 1.66 0 0 1 .908-.696c.394-.132.763-.127 1.106.015.353.15.58.403.682.757.1.353.045.7-.167 1.045Zm1.424-1.833a.596.596 0 0 1-.333.28.627.627 0 0 1-.44.008c-.303-.142-.368-.369-.196-.682a.596.596 0 0 1 .325-.28.606.606 0 0 1 .432-.008c.131.05.22.144.265.28a.457.457 0 0 1-.053.401Z"/><path fill="#F19F4B" d="M28.703 16.629a.884.884 0 0 0 .515.446c.232.071.457.05.674-.06a.885.885 0 0 0 .447-.515 3.358 3.358 0 0 0 .098-1.78 3.464 3.464 0 0 0-.825-1.643 3.369 3.369 0 0 0-1.53-.992 3.471 3.471 0 0 0-1.802-.083.84.84 0 0 0-.56.386.877.877 0 0 0-.121.674c.04.242.166.429.378.56.212.13.44.172.682.121.636-.131 1.176.046 1.62.53.445.485.566 1.045.364 1.681a.87.87 0 0 0 .06.675Z"/><path fill="#F19F4B" d="M34.058 13.978a6.991 6.991 0 0 0-1.704-3.37 6.924 6.924 0 0 0-3.15-2.037 7.231 7.231 0 0 0-3.696-.174c-.283.06-.503.21-.66.447a.989.989 0 0 0-.143.78c.06.283.212.503.455.66.241.156.504.204.787.143a5.197 5.197 0 0 1 2.62.129c.87.267 1.617.75 2.243 1.446a4.919 4.919 0 0 1 1.211 2.393c.182.909.132 1.777-.15 2.605a1.02 1.02 0 0 0 .075.788c.131.252.333.424.606.515.273.09.535.07.788-.06a1.02 1.02 0 0 0 .515-.606c.394-1.162.461-2.38.204-3.658h-.001Z"/></g></g><defs><clipPath id="b"><path fill="#fff" d="M7.059 8.235h27.15v21.988H7.06z"/></clipPath><filter id="a" width="36.563" height="31.4" x="2.353" y="5.882" color-interpolation-filters="sRGB" filterUnits="userSpaceOnUse"><feFlood flood-opacity="0" result="BackgroundImageFix"/><feColorMatrix in="SourceAlpha" result="hardAlpha" values="0 0 0 0 0 0 0 0 0 0 0 0 0 0 0 0 0 0 127 0"/><feOffset dy="2.353"/><feGaussianBlur stdDeviation="2.353"/><feColorMatrix values="0 0 0 0 0 0 0 0 0 0 0 0 0 0 0 0 0 0 0.05 0"/><feBlend in2="BackgroundImageFix" result="effect1_dropShadow_11686_8014"/><feBlend in="SourceGraphic" in2="effect1_dropShadow_11686_8014" result="shape"/></filter></defs></svg>
